!!!OTL: Damihao
!!!ARE: Asia, China,ÿHenan, Lingbao
!! IV, 166
!!!SCT: C1667
!!!YEM: Copyright 1995, estate of Helmut Schaffrath.
**kern
*ICvox
*Ivox
*M2/4
*k[b-e-]
*B-:
{4gg
8gg
8bb-
=1
2ccc
=2
4ccc
8ccc
8bb-
=3
2gg}
=4
{4ccc
8ccc
8bb-
=5
4ff
8ff
8gg
=6
4bb-
8gg
8bb-
=7
4ccc
8ccc
8bb-
=8
4bb-
8gg
8gg
=9
2ff}
==
!!!AGN: Haozi
!!!AMT: simple duple
!!!AIN: vox
!!!EED: Helmut Schaffrath
!!!EEV: 1.0
*-
